X: 21663
Q: "Slow."
M: 2/4
L: 1/8
K: D
[|\
d2(cd) | (cB)(AB) |\
(de)(fg) | a2a2 |\
(ag)(gf) | {f}e4 |\
e2(fg) |
f2(ga) |\
(ag)(fe) | {e}f2z2 |\
a2 (3(gag) | f2z2 |\
f2 (3(efe) | d2 (eg/e/) |\
d2 (c3/4B//c//) | {c}d4 |]


